src/assets/icons/sitemap.svg

<svg width="14" height="14" viewBox="0 0 14 14" fill="none" xmlns="http://www.w3.org/2000/svg">
<g id="sitemap">
<path id="Vector" fill-rule="evenodd" clip-rule="evenodd" d="M5.74359 2.33331C5.74359 2.23419 5.82395 2.15383 5.92308 2.15383H8.07692C8.17605 2.15383 8.25641 2.23419 8.25641 2.33331V4.48716C8.25641 4.58629 8.17605 4.66665 8.07692 4.66665H7H5.92308C5.82395 4.66665 5.74359 4.58629 5.74359 4.48716V2.33331ZM7.53846 5.74357H8.07692C8.77082 5.74357 9.33333 5.18106 9.33333 4.48716V2.33331C9.33333 1.63942 8.77082 1.0769 8.07692 1.0769H5.92308C5.22918 1.0769 4.66667 1.63942 4.66667 2.33331V4.48716C4.66667 5.18106 5.22918 5.74357 5.92308 5.74357H6.46154V6.82049H2.69231C2.00005 6.82049 1.4359 7.38465 1.4359 8.0769V8.97434H1.25641C0.562514 8.97434 0 9.53685 0 10.2308V11.6666C0 12.3605 0.562514 12.9231 1.25641 12.9231H2.69231C3.3862 12.9231 3.94872 12.3605 3.94872 11.6666V10.2308C3.94872 9.53685 3.3862 8.97434 2.69231 8.97434H2.51282V8.0769C2.51282 7.97942 2.59482 7.89742 2.69231 7.89742H6.46154V8.97434H6.28205C5.5898 8.97434 5.02564 9.5385 5.02564 10.2308V11.6666C5.02564 12.3589 5.5898 12.9231 6.28205 12.9231H7.71795C8.4102 12.9231 8.97436 12.3589 8.97436 11.6666V10.2308C8.97436 9.5385 8.4102 8.97434 7.71795 8.97434H7.53846V7.89742H11.3077C11.4052 7.89742 11.4872 7.97942 11.4872 8.0769V8.97434H11.3077C10.6138 8.97434 10.0513 9.53685 10.0513 10.2308V11.6666C10.0513 12.3605 10.6138 12.9231 11.3077 12.9231H12.7436C13.4375 12.9231 14 12.3605 14 11.6666V10.2308C14 9.53685 13.4375 8.97434 12.7436 8.97434H12.5641V8.0769C12.5641 7.38465 11.9999 6.82049 11.3077 6.82049H7.53846V5.74357ZM7 10.0513H6.28205C6.18456 10.0513 6.10256 10.1333 6.10256 10.2308V11.6666C6.10256 11.7641 6.18456 11.8461 6.28205 11.8461H7.71795C7.81544 11.8461 7.89744 11.7641 7.89744 11.6666V10.2308C7.89744 10.1333 7.81544 10.0513 7.71795 10.0513H7ZM1.07692 10.2308C1.07692 10.1316 1.15728 10.0513 1.25641 10.0513H1.97436H2.69231C2.79144 10.0513 2.87179 10.1316 2.87179 10.2308V11.6666C2.87179 11.7658 2.79144 11.8461 2.69231 11.8461H1.25641C1.15728 11.8461 1.07692 11.7658 1.07692 11.6666V10.2308ZM11.3077 10.0513H12.0256H12.7436C12.8427 10.0513 12.9231 10.1316 12.9231 10.2308V11.6666C12.9231 11.7658 12.8427 11.8461 12.7436 11.8461H11.3077C11.2086 11.8461 11.1282 11.7658 11.1282 11.6666V10.2308C11.1282 10.1316 11.2086 10.0513 11.3077 10.0513Z" fill="black"/>
</g>
</svg>

<svg xmlns="http://www.w3.org/2000/svg" fill="none" viewBox="0 0 14 14"><path fill="#000" fill-rule="evenodd" d="M5.744 2.333c0-.099.08-.18.18-.18h2.153c.1 0 .18.081.18.18v2.154c0 .1-.08.18-.18.18H5.923a.18.18 0 0 1-.18-.18zm1.794 3.41h.539c.694 0 1.256-.562 1.256-1.256V2.333c0-.694-.562-1.256-1.256-1.256H5.923c-.694 0-1.256.562-1.256 1.256v2.154c0 .694.562 1.257 1.256 1.257h.539V6.82h-3.77c-.692 0-1.256.565-1.256 1.257v.897h-.18C.563 8.974 0 9.537 0 10.231v1.436c0 .694.563 1.256 1.256 1.256h1.436c.694 0 1.257-.562 1.257-1.256V10.23c0-.694-.563-1.257-1.257-1.257h-.18v-.897c0-.098.083-.18.18-.18h3.77v1.077h-.18c-.692 0-1.256.565-1.256 1.257v1.436c0 .692.564 1.256 1.256 1.256h1.436c.692 0 1.256-.564 1.256-1.256V10.23c0-.692-.564-1.257-1.256-1.257h-.18V7.897h3.77c.097 0 .18.082.18.18v.897h-.18c-.694 0-1.257.563-1.257 1.257v1.436c0 .694.563 1.256 1.257 1.256h1.436c.694 0 1.256-.562 1.256-1.256V10.23c0-.694-.562-1.257-1.256-1.257h-.18v-.897c0-.692-.564-1.257-1.256-1.257h-3.77zM7 10.052h-.718a.18.18 0 0 0-.18.18v1.436c0 .097.083.18.18.18h1.436c.097 0 .18-.083.18-.18V10.23a.18.18 0 0 0-.18-.18zm-5.923.18c0-.1.08-.18.18-.18h1.435c.1 0 .18.08.18.18v1.436c0 .099-.08.18-.18.18H1.256a.18.18 0 0 1-.18-.18zm10.23-.18h1.437c.099 0 .18.08.18.18v1.436c0 .099-.081.18-.18.18h-1.436a.18.18 0 0 1-.18-.18V10.23c0-.1.08-.18.18-.18" clip-rule="evenodd"/></svg>
